X:1
T:Title
%%score ( 1 2 ) { ( 3 5 ) | 4 }
L:1/8
Q:1/4=100
M:4/4
K:F
V:1 treble nm="Bright Piano"
V:2 treble 
V:3 bass nm="Bright Piano"
V:5 bass 
V:4 bass 
V:1
 z2 .D2 z4 | [DG]2 cB AG [CF]2 | [Cc]2 [Fc]2 dc[EB][FA] | [FG]2 AB [FA]4 | [FA]2 [EG]2 [DF]2 GA | %5
 B-[EB] [FA]2 [EG]2 C2 | [CA]2 GF [CE]2 [CF][DG] | A-[FA] [EG]2 [CF]4 |] %8
V:2
 [A,C]2 B,-[B,E] [A,F]2 [CF]2 | z2 C2 C2 z2 | z4 F2 z2 | z2 E2 z4 | z4 z2 D2 | .D2 z2 z4 | %6
 z2 D2 z4 | .C2 z2 z4 |] %8
V:3
 F,2 F,G, F,2 A,2 | G,2 E,G, z B, A,2 | G,2 A,2 B,A,G,F, | D2 C2 C4 | C2 C2[K:bass] A,2 B,C | %5
 B,2 C2 C2 E,2 | F,2 B,A, G,2 F,2 | F,A,CB, A,4 |] %8
V:4
 F,,2 B,,G,, D,2 A,,2 | B,,2 C,2 z2 F,2 | E,2 F,2 B,,2 C,D, | B,,2 C,2 F,4 | F,2 C,2 D,C,B,,A,, | %5
 G,,2 A,,B,, C,2 C,2 | z2 B,,2 C,B,,A,,B,, | C,2 C,2 F,,4 |] %8
V:5
 x8 | z4 F,2 z2 | x8 | x8 | x4[K:bass] x4 | x8 | x8 | x8 |] %8

